train-car-hopper-full.svg

<svg  viewBox="0 0 24 24" fill="currentColor"><path  d="M21 8C19.04 6.19 15.74 5 12 5S4.96 6.19 3 8H1V17H2C2 18.11 2.9 19 4 19S6 18.11 6 17H18C18 18.11 18.9 19 20 19S22 18.11 22 17H23V8H21M13 15V11H11V15H8V11H6V15H3V10H21V15H18V11H16V15H13Z"/></svg>

<svg fill="currentColor" viewBox="0 0 24 24"><path d="M21 8c-1.96-1.81-5.26-3-9-3S4.96 6.19 3 8H1v9h1a2 2 0 1 0 4 0h12a2 2 0 1 0 4 0h1V8zm-8 7v-4h-2v4H8v-4H6v4H3v-5h18v5h-3v-4h-2v4z"/></svg>
